!!!OTL: Marguerite (3-39), S. 101f
!!!id: K1173
**kern
*clefG2
*k[b-]
*F:
{16f
=1
16f
4.cc
8a
=2
8dd
8dd
8cc
8cc
=3
4.b-
8g
=4
2e}
=5
{4.dd
8dd
=6
8ee
8ee
8dd
8dd
=7
4.cc
8a
=8
2f}
=9
{4.cc
8a
=10
8dd
8dd
8cc
8cc
=11
4.b-
8g
=12
2e}
=13
{4.dd
8dd
=14
8ee
8ee
8dd
8dd
=15
4cc}
=16
{8.cc
16cc
=17
8dd
8dd
8cc
8cc
=18
4b-
8.b-
16b-
=19
8cc
8cc
8b-
8b-
=20
4a}
=21
{4cc
=22
4.ff
8cc
=23
4ee
8dd
8dd
=24
4.ee
8dd
=25
4dd
4cc}
=26
{4cc
8b
8cc
=27
4.ee
8dd
=28
8cc
8cc
8b-
8b-
=29
4a}
=30
{4cc
=31
4.ff
8cc
=32
4ee
8dd
8dd
=33
4.ee
8dd
=34
4dd
4cc}
=35
{4cc
8b
8cc
=36
4.ee
8dd
=37
8cc
8cc
8dd
8ee
=38
2ff}
==
*-
!!!minrhy: 16
!!!meters: 2/4 ]  ZZ[9
!!!cut: Marguerite (3-39), S. 101f
!!!reg: Luxemburg
!!!trd: KINTZELE, Guillaume: An der Ucht, Bd. 3 Luxemburg 1928
!!!rhy1:   X__.X_  X_X_X_X_  X__.X_  X___   (x2)
!!!rhy2: X__.X_  X_X_X_X_  X__.X_  X___
!!!key: K1173  16  F 2/4 ]  ZZ[9
!!!mod: ACHTTONSKALA DUR ?]  AMBITUS[9b
!!!kad: -71-753535+1
!!!akz: 564-7_6751_564-7_675_6453_+1776_5753_+1776_575+1_
!!!fot: 'a__as'a__as'b__c__d__c__dw_
!!!for: 'a__a__a__aw_b__c__d__c__dv_
!!!fok: '\__\__\__\__\__^__^d_^__~a_
!! PHRAS[VORWIEGEND VOLLTAKTIG]
!!!fkt: Abschied, Trennung, Krieg
!! KINTZELE
!! PR[32] 2K[8] 2G[5] 3K[10] 3G[7] 4A[5] 4Ü[0] 5A[1] 6K[0] 6G[0]
!! 7K[0] 7G[0] 8A[0] MEHR[0] SI[36] ABS[91] SR[13] SP[23]
!! ST[22] 2k[7] 2g[5] 3k[10] 3g[5] 4d[1] 4ü[0] 5d[0] 6k[0] 6g[0]
!! 7k[0] 7g[0] 8d[3] mehr[0] si[32] dm[+4] sr[12] sp[20]
!! 1F[25] 2F[71] 3F[4] 4F[0] LF[0] 2P[0] 3P[0] 4P[0] TRI[0] DF[3] AB[96]
!! TF[0] U3K[0] U3[0] U4[0] U4Ü[0] U5[9] U6K[0] U6[0] U7K[0] U7[7]
!! N1[25] N2K[0] N2[21] N3K[0] N3[21] N4[11] N4Ü[0] N5[8] N6K[0] N6[0]
!!!n7k: 0] N7[0] O1[0] O2K[0] O2[0] O3K[0] O3[0] HÖ[0
